assets/awsdeadlinecloud/original.svg

<svg height="64" viewBox="0 0 64 64" width="64" xmlns="http://www.w3.org/2000/svg"><g fill="none" fill-rule="evenodd"><path d="m0 0h64v64h-64z" fill="#ed7100"/><path d="m27 31.382-3 1.5-3-1.5v-3.764l3-1.5 3 1.5zm-10-10.764 3-1.5 3 1.5v3.764l-3 1.5-3-1.5zm11.447 5.488-3.447-1.724v-4.382a1 1 0 0 0 -.553-.894l-4-2a1 1 0 0 0 -.894 0l-4 2a1 1 0 0 0 -.553.894v5c0 .379.214.725.553.895l3.447 1.723v4.382c0 .379.214.725.553.895l4 2a1 1 0 0 0 .894 0l4-2c.339-.17.553-.516.553-.895v-5a1 1 0 0 0 -.553-.894m-8.923-19.957 13 8a1 1 0 0 1 .476.851v14a1 1 0 0 1 -.476.852l-1.524.938v-15.231l-12-7.385-12 7.385v12.883l12 7.384.871-.536 2.106 1.053-2.453 1.509a1 1 0 0 1 -1.048 0l-13-8a1 1 0 0 1 -.476-.852v-14c0-.347.18-.669.476-.851l13-8a.99.99 0 0 1 1.048 0m16.476 25.29-17 10.389-17-10.389v-18.878l17-10.389 17 10.389zm1.521-20.292-18-11a1 1 0 0 0 -1.042 0l-18 11a1 1 0 0 0 -.479.853v20c0 .348.182.672.479.854l18 11a1 1 0 0 0 1.042 0l18-11c.297-.182.479-.506.479-.854v-20c0-.348-.182-.671-.479-.853" fill="#fff" transform="translate(13 10)"/></g></svg>

<svg xmlns="http://www.w3.org/2000/svg" width="64" height="64" viewBox="0 0 64 64"><title>Icon-Architecture/48/Arch_Amazon-Deadline-Cloud_48</title><g id="Icon-Architecture/48/Arch_Amazon-Deadline-Cloud_48" fill="none" fill-rule="evenodd" stroke="none" stroke-width="1"><g id="Icon-Architecture-BG/48/Media-Services" fill="#ed7100"><path id="Rectangle" d="M0 0h64v64H0z"/></g><g id="Icon-Service/48/Amazon-Deadline-Cloud_48" fill="#fff" transform="translate(13 10)"><path id="Fill-3" d="m27 31.382-3 1.5-3-1.5v-3.764l3-1.5 3 1.5zM17 20.618l3-1.5 3 1.5v3.764l-3 1.5-3-1.5zm11.447 5.488L25 24.382V20a1 1 0 0 0-.553-.894l-4-2a1 1 0 0 0-.894 0l-4 2A1 1 0 0 0 15 20v5c0 .379.214.725.553.895L19 27.618V32c0 .379.214.725.553.895l4 2a1 1 0 0 0 .894 0l4-2c.339-.17.553-.516.553-.895v-5a1 1 0 0 0-.553-.894M19.524 6.149l13 8A1 1 0 0 1 33 15v14a1 1 0 0 1-.476.852L31 30.79V15.559L19 8.174 7 15.559v12.883l12 7.384.871-.536 2.106 1.053-2.453 1.509a1 1 0 0 1-1.048 0l-13-8A1 1 0 0 1 5 29V15c0-.347.18-.669.476-.851l13-8a.99.99 0 0 1 1.048 0M36 31.439 19 41.828 2 31.439V12.561L19 2.172l17 10.389zm1.521-20.292-18-11a1 1 0 0 0-1.042 0l-18 11A1 1 0 0 0 0 12v20c0 .348.182.672.479.854l18 11a1 1 0 0 0 1.042 0l18-11c.297-.182.479-.506.479-.854V12c0-.348-.182-.671-.479-.853"/></g></g></svg>
